X: 20952
T: The DEMON LOVER
O: Old ballad air.
Q: "Slow."
%R: air, march
B: W. Hamilton "Universal Tune-Book" Vol. 2 Glasgow 1846 p.95 #2
S: http://s3-eu-west-1.amazonaws.com/itma.dl.printmaterial/book_pdfs/hamiltonvol2web.pdf
Z: 2016 John Chambers <jc:trillian.mit.edu>
M: C
L: 1/8
K: F
% - - - - - - - - - - - - - - - - - - - - - - - - -
F |\
A2AA A2G2 | F2G2 A2f2 | e2d2 d3c | c4 z2Ac |\
d2d2 d2A2 | c2(d>e) f3c | (dc)A2 A2G2 | F4 z2 |]
% - - - - - - - - - - - - - - - - - - - - - - - - -

%%sep 1 1 500
%%sep 1 1 500

